findly-builder/apps/searchassist/src/assets/icons/empty-log.svg

<svg width="124" height="124" viewBox="0 0 124 124" fill="none" xmlns="http://www.w3.org/2000/svg">
<path d="M20.2692 15.5C13.4043 15.5 7.75 21.2277 7.75 28.1818V108.5H116.25V28.1818C116.25 21.2277 110.596 15.5 103.731 15.5H20.2692ZM20.2692 23.9545H103.731C106.08 23.9545 107.904 25.8021 107.904 28.1818V32.4091H16.0962V28.1818C16.0962 25.8021 17.9201 23.9545 20.2692 23.9545ZM16.0962 40.8636H107.904V100.045H16.0962V40.8636ZM32.7885 49.3182V57.7727H91.2115V49.3182H32.7885ZM32.7885 66.2273V74.6818H74.5192V66.2273H32.7885ZM82.8654 66.2273V74.6818H91.2115V66.2273H82.8654ZM32.7885 83.1364V91.5909H74.5192V83.1364H32.7885ZM82.8654 83.1364V91.5909H91.2115V83.1364H82.8654Z" fill="#E5E8EC"/>
</svg>

<svg width="124" height="124" fill="none" xmlns="http://www.w3.org/2000/svg"><path d="M20.27 15.5c-6.866 0-12.52 5.728-12.52 12.682V108.5h108.5V28.182c0-6.954-5.654-12.682-12.519-12.682H20.269Zm0 8.454h83.461c2.349 0 4.173 1.848 4.173 4.228v4.227H16.096v-4.227c0-2.38 1.824-4.227 4.173-4.227Zm-4.174 16.91h91.808v59.181H16.096V40.864Zm16.692 8.454v8.455h58.424v-8.455H32.788Zm0 16.91v8.454H74.52v-8.455H32.79Zm50.077 0v8.454h8.347v-8.455h-8.347ZM32.79 83.135v8.455h41.73v-8.455H32.79Zm50.076 0v8.455h8.347v-8.455h-8.347Z" fill="#E5E8EC"/></svg>
